material-icons/material-design-light/scalable/applications/help-browser.svg

<?xml version="1.0" encoding="UTF-8" standalone="no"?>
<svg
   xmlns:dc="http://purl.org/dc/elements/1.1/"
   xmlns:cc="http://creativecommons.org/ns#"
   xmlns:rdf="http://www.w3.org/1999/02/22-rdf-syntax-ns#"
   xmlns:svg="http://www.w3.org/2000/svg"
   xmlns="http://www.w3.org/2000/svg"
   xmlns:sodipodi="http://sodipodi.sourceforge.net/DTD/sodipodi-0.dtd"
   xmlns:inkscape="http://www.inkscape.org/namespaces/inkscape"
   version="1.1"
   width="24"
   height="24"
   viewBox="0 0 24.00 24.00"
   enable-background="new 0 0 24.00 24.00"
   xml:space="preserve"
   id="svg4"
   sodipodi:docname="help-browser.svg"
   inkscape:version="0.92.0 r15299"><metadata
     id="metadata10"><rdf:RDF><cc:Work
         rdf:about=""><dc:format>image/svg+xml</dc:format><dc:type
           rdf:resource="http://purl.org/dc/dcmitype/StillImage" /><dc:title></dc:title></cc:Work></rdf:RDF></metadata><defs
     id="defs8" /><sodipodi:namedview
     pagecolor="#ffffff"
     bordercolor="#666666"
     borderopacity="1"
     objecttolerance="10"
     gridtolerance="10"
     guidetolerance="10"
     inkscape:pageopacity="0"
     inkscape:pageshadow="2"
     inkscape:window-width="726"
     inkscape:window-height="480"
     id="namedview6"
     showgrid="false"
     inkscape:zoom="9.8333333"
     inkscape:cx="28.881356"
     inkscape:cy="12"
     inkscape:window-x="641"
     inkscape:window-y="2"
     inkscape:window-maximized="0"
     inkscape:current-layer="svg4" /><path
     fill="#000000"
     fill-opacity="1"
     stroke-width="0.2"
     stroke-linejoin="round"
     d="M 16.3607,13.998C 16.4427,13.3411 16.4997,12.6771 16.4997,11.998C 16.4997,11.319 16.4427,10.655 16.3607,9.99805L 19.7367,9.99805C 19.9027,10.6381 19.9997,11.306 19.9997,11.998C 19.9997,12.6901 19.9027,13.358 19.7367,13.998M 14.5927,19.559C 15.1927,18.446 15.6487,17.248 15.9717,15.998L 18.9207,15.998C 17.9617,17.652 16.4297,18.928 14.5927,19.559 Z M 14.3387,13.998L 9.6597,13.998C 9.5647,13.343 9.49969,12.6791 9.49969,11.998C 9.49969,11.317 9.5647,10.6531 9.6597,9.99805L 14.3387,9.99805C 14.4337,10.6531 14.4997,11.317 14.4997,11.998C 14.4997,12.6791 14.4337,13.343 14.3387,13.998 Z M 11.9977,19.962C 11.1657,18.762 10.5157,17.4291 10.0887,15.998L 13.9097,15.998C 13.4817,17.4291 12.8317,18.762 11.9977,19.962 Z M 8.0257,7.99805L 5.07669,7.99805C 6.0347,6.34204 7.56668,5.06403 9.40469,4.43506C 8.80469,5.54803 8.34869,6.74603 8.0257,7.99805 Z M 5.07669,15.998L 8.0257,15.998C 8.34869,17.249 8.80469,18.4481 9.40469,19.561C 7.56668,18.9321 6.0347,17.6541 5.07669,15.998 Z M 4.26068,13.998C 4.0957,13.358 3.99969,12.6901 3.99969,11.998C 3.99969,11.306 4.0957,10.6381 4.26068,9.99805L 7.6377,9.99805C 7.55569,10.655 7.49969,11.319 7.49969,11.998C 7.49969,12.6771 7.55569,13.3411 7.6377,13.998M 11.9977,4.03406C 12.8317,5.23407 13.4817,6.56702 13.9097,7.99805L 10.0887,7.99805C 10.5157,6.56702 11.1657,5.23407 11.9977,4.03406 Z M 18.9207,7.99805L 15.9717,7.99805C 15.6487,6.74805 15.1927,5.55005 14.5927,4.43707C 16.4297,5.06805 17.9617,6.34406 18.9207,7.99805 Z M 11.9937,1.99805C 6.46768,1.99805 1.99969,6.47504 1.99969,11.998C 1.99969,17.5211 6.46768,21.998 11.9937,21.998C 17.5207,21.998 21.9997,17.5211 21.9997,11.998C 21.9997,6.47504 17.5207,1.99805 11.9937,1.99805 Z "
     id="path2" /><path
     inkscape:connector-curvature="0"
     style="fill:#808080;fill-opacity:1;stroke-width:1.33333004;stroke-linejoin:miter"
     d="m 14.0887,18.99805 h 3 v 3 h -3 v -3 m 2,-17 c 5.3536,0.2231 7.6774,5.6179 4.5,9.67 -0.83,1 -2.17,1.66 -2.83,2.5 -0.67,0.83 -0.67,1.83 -0.67,2.83 h -3 c 0,-1.67 0,-3.08 0.67,-4.08 0.66,-1 2,-1.59 2.83,-2.25 2.4157,-2.2399 1.82,-5.4133 -1.5,-5.67 -1.6569,0 -3,1.3431 -3,3 h -3 c 0,-3.3137 2.68629,-6 6,-6 z"
     id="path2-3" /></svg>

<?xml version="1.0" encoding="UTF-8" standalone="no"?>
<svg xmlns:rdf="http://www.w3.org/1999/02/22-rdf-syntax-ns#" xmlns="http://www.w3.org/2000/svg" xml:space="preserve" height="24" width="24" version="1.1" enable-background="new 0 0 24.00 24.00" xmlns:cc="http://creativecommons.org/ns#" xmlns:dc="http://purl.org/dc/elements/1.1/" viewBox="0 0 24.00 24.00"><path stroke-linejoin="round" d="m16.361 13.998c0.082-0.657 0.139-1.321 0.139-2s-0.057-1.343-0.139-2h3.376c0.166 0.64 0.263 1.308 0.263 2s-0.097 1.36-0.263 2m-5.144 5.561c0.6-1.113 1.056-2.311 1.379-3.561h2.949c-0.959 1.654-2.491 2.93-4.328 3.561zm-0.254-5.561h-4.6793c-0.095-0.655-0.16-1.319-0.16-2s0.065-1.345 0.16-2h4.6793c0.095 0.655 0.161 1.319 0.161 2s-0.066 1.345-0.161 2zm-2.341 5.964c-0.832-1.2-1.482-2.533-1.909-3.964h3.821c-0.428 1.431-1.078 2.764-1.912 3.964zm-3.9723-11.964h-2.949c0.958-1.656 2.49-2.934 4.328-3.5629-0.6 1.1129-1.056 2.3109-1.379 3.5629zm-2.949 8h2.949c0.323 1.251 0.779 2.45 1.379 3.563-1.838-0.629-3.37-1.907-4.328-3.563zm-0.816-2c-0.165-0.64-0.261-1.308-0.261-2s0.096-1.36 0.261-2h3.377c-0.082 0.657-0.138 1.321-0.138 2s0.056 1.343 0.138 2m4.3603-9.9639c0.834 1.2 1.484 2.5329 1.912 3.9639h-3.821c0.427-1.431 1.077-2.7639 1.909-3.9639zm6.923 3.9639h-2.949c-0.323-1.25-0.779-2.448-1.379-3.5609 1.837 0.6309 3.369 1.907 4.328 3.5609zm-6.927-6c-5.5263 0-9.9943 4.477-9.9943 10s4.468 10 9.9943 10c5.527 0 10.006-4.477 10.006-10s-4.479-10-10.006-10z" stroke-width=".2"/><path d="m14.089 18.998h3v3h-3v-3m2-17c5.3536 0.2231 7.6774 5.6179 4.5 9.67-0.83 1-2.17 1.66-2.83 2.5-0.67 0.83-0.67 1.83-0.67 2.83h-3c0-1.67 0-3.08 0.67-4.08 0.66-1 2-1.59 2.83-2.25 2.4157-2.2399 1.82-5.4133-1.5-5.67-1.6569 0-3 1.3431-3 3h-3c0-3.3137 2.6863-6 6-6z" stroke-width="1.3333" fill="#808080"/></svg>
